X: 408
T: A Trip To Galloway
R: waltz
M: 3/4
K: Dmajor
Bc|d2- dc B2|AF- F2 d2|D2- DE D2|AF- F2 D2|d2- dc B2|AF- F2 D2|E2- EF A2|B4 Bc|
d2- dc B2|Ad- d2- d2|D4 ED|AF- F2 D2|G2-GB G2|F2- FA F2|E2- EF A2|B4||
A2|d2- df a2|af- f2 d2|c4 e2|ec- c2 A2|d2- df a2|af- f2 d2|A2-AF A2|B4 A2|
d2- df a2|af- f2 d2|c2- ce a2|ec- c2 A2|d2- dc B2|AF- F2 [D2A2]|E2- EF A2|B4||

